X: 2634
T: Bancroft's Descent
R: jig
M: 6/8
K: Dmajor
e|:fdd ~a2g|fag fdd|eAA ~g2f|efd eAA|dAA ~d2e|
[1 fag fgf|egf efd|eAA d2e:|2 fag faf|egf efd|eAA dcB||
|:Add ceg|fda fdd|EFG Bcd|
[1 efd cde|dAA eAg|fag fgf|egf efd|eAA dcB:|
[2 ecA GFE|DFA Bcd|cde deg|fag fgf|ecA d2e||

